TileServer und Tiles/svg/9/22_18.svg

<?xml version='1.0' encoding='UTF-8' standalone='no'?>
<svg xmlns="http://www.w3.org/2000/svg" width="497pt" viewBox="0 0 497 279" xmlns:xlink="http://www.w3.org/1999/xlink" height="279pt">
 <defs style="stroke:none;" overflow="visible">
  <path id="glyph0-5" d="M 2.828125 0.125 C 2.191406 0.125 1.6875 -0.0234375 1.3125 -0.328125 C 0.9375 -0.628906 0.75 -1.097656 0.75 -1.734375 C 0.75 -1.890625 0.757812 -2.070312 0.78125 -2.28125 C 0.8125 -2.488281 0.84375 -2.679688 0.875 -2.859375 L 1.625 -6.4375 L 2.703125 -6.4375 L 2.09375 -3.640625 C 2.289062 -3.679688 2.5 -3.710938 2.71875 -3.734375 C 2.9375 -3.765625 3.160156 -3.78125 3.390625 -3.78125 C 4.035156 -3.78125 4.519531 -3.632812 4.84375 -3.34375 C 5.175781 -3.050781 5.34375 -2.632812 5.34375 -2.09375 C 5.34375 -1.6875 5.25 -1.316406 5.0625 -0.984375 C 4.882812 -0.648438 4.613281 -0.378906 4.25 -0.171875 C 3.882812 0.0234375 3.410156 0.125 2.828125 0.125 Z M 5.96875 0 L 7.328125 -6.4375 L 8.390625 -6.4375 L 7.015625 0 Z M 2.890625 -0.75 C 3.390625 -0.75 3.75 -0.875 3.96875 -1.125 C 4.1875 -1.375 4.296875 -1.660156 4.296875 -1.984375 C 4.296875 -2.335938 4.191406 -2.582031 3.984375 -2.71875 C 3.785156 -2.851562 3.484375 -2.921875 3.078125 -2.921875 C 2.878906 -2.921875 2.679688 -2.910156 2.484375 -2.890625 C 2.296875 -2.867188 2.109375 -2.835938 1.921875 -2.796875 C 1.867188 -2.566406 1.832031 -2.375 1.8125 -2.21875 C 1.789062 -2.070312 1.78125 -1.941406 1.78125 -1.828125 C 1.78125 -1.484375 1.863281 -1.21875 2.03125 -1.03125 C 2.207031 -0.84375 2.492188 -0.75 2.890625 -0.75 Z M 2.890625 -0.75 "/>
  <path id="glyph0-4" d="M 0.28125 0 L 1.671875 -6.46875 L 2.609375 -6.46875 L 2.46875 -5.28125 L 2.484375 -5.28125 C 2.640625 -5.476562 2.816406 -5.675781 3.015625 -5.875 C 3.222656 -6.082031 3.460938 -6.253906 3.734375 -6.390625 C 4.003906 -6.523438 4.3125 -6.59375 4.65625 -6.59375 C 5.175781 -6.59375 5.582031 -6.445312 5.875 -6.15625 C 6.164062 -5.875 6.3125 -5.476562 6.3125 -4.96875 C 6.3125 -4.78125 6.296875 -4.585938 6.265625 -4.390625 C 6.242188 -4.203125 6.21875 -4.039062 6.1875 -3.90625 L 5.328125 0 L 4.203125 0 L 5.0625 -4.046875 C 5.101562 -4.222656 5.132812 -4.375 5.15625 -4.5 C 5.175781 -4.625 5.1875 -4.742188 5.1875 -4.859375 C 5.1875 -5.367188 4.914062 -5.625 4.375 -5.625 C 4.101562 -5.625 3.8125 -5.53125 3.5 -5.34375 C 3.195312 -5.164062 2.910156 -4.867188 2.640625 -4.453125 C 2.378906 -4.035156 2.171875 -3.472656 2.015625 -2.765625 L 1.421875 0 Z M 0.28125 0 "/>
  <path id="glyph0-3" d="M 2.3125 0.125 C 1.800781 0.125 1.382812 -0.0625 1.0625 -0.4375 C 0.738281 -0.8125 0.578125 -1.359375 0.578125 -2.078125 C 0.578125 -2.671875 0.65625 -3.238281 0.8125 -3.78125 C 0.96875 -4.320312 1.1875 -4.796875 1.46875 -5.203125 C 1.75 -5.617188 2.078125 -5.945312 2.453125 -6.1875 C 2.835938 -6.425781 3.265625 -6.546875 3.734375 -6.546875 C 4.160156 -6.546875 4.503906 -6.429688 4.765625 -6.203125 C 5.023438 -5.984375 5.222656 -5.726562 5.359375 -5.4375 L 5.40625 -5.4375 L 5.796875 -6.4375 L 6.59375 -6.4375 L 5.234375 0 L 4.390625 0 L 4.546875 -1.1875 L 4.5 -1.1875 C 4.226562 -0.832031 3.90625 -0.523438 3.53125 -0.265625 C 3.164062 -0.00390625 2.757812 0.125 2.3125 0.125 Z M 2.65625 -0.75 C 2.957031 -0.75 3.25 -0.859375 3.53125 -1.078125 C 3.8125 -1.296875 4.066406 -1.585938 4.296875 -1.953125 C 4.523438 -2.328125 4.707031 -2.738281 4.84375 -3.1875 C 4.90625 -3.425781 4.941406 -3.640625 4.953125 -3.828125 C 4.972656 -4.023438 4.984375 -4.207031 4.984375 -4.375 C 4.984375 -4.75 4.878906 -5.054688 4.671875 -5.296875 C 4.472656 -5.535156 4.195312 -5.65625 3.84375 -5.65625 C 3.53125 -5.65625 3.238281 -5.554688 2.96875 -5.359375 C 2.707031 -5.171875 2.476562 -4.90625 2.28125 -4.5625 C 2.082031 -4.226562 1.925781 -3.84375 1.8125 -3.40625 C 1.707031 -2.976562 1.65625 -2.523438 1.65625 -2.046875 C 1.65625 -1.617188 1.742188 -1.296875 1.921875 -1.078125 C 2.097656 -0.859375 2.34375 -0.75 2.65625 -0.75 Z M 2.65625 -0.75 "/>
  <path id="glyph0-2" d="M -0.03125 0.078125 C -0.132812 0.078125 -0.226562 0.0664062 -0.3125 0.046875 C -0.40625 0.0351562 -0.476562 0.0195312 -0.53125 0 L -0.53125 -0.90625 C -0.414062 -0.863281 -0.28125 -0.84375 -0.125 -0.84375 C 0.125 -0.84375 0.335938 -0.925781 0.515625 -1.09375 C 0.703125 -1.257812 0.878906 -1.523438 1.046875 -1.890625 C 1.222656 -2.265625 1.410156 -2.75 1.609375 -3.34375 C 1.796875 -3.882812 1.972656 -4.347656 2.140625 -4.734375 C 2.304688 -5.128906 2.492188 -5.457031 2.703125 -5.71875 C 2.921875 -5.976562 3.179688 -6.171875 3.484375 -6.296875 C 3.796875 -6.421875 4.1875 -6.484375 4.65625 -6.484375 C 4.925781 -6.484375 5.1875 -6.46875 5.4375 -6.4375 C 5.695312 -6.40625 5.929688 -6.351562 6.140625 -6.28125 L 4.796875 0 L 3.734375 0 L 4.9375 -5.5625 C 4.882812 -5.570312 4.816406 -5.582031 4.734375 -5.59375 C 4.660156 -5.601562 4.578125 -5.609375 4.484375 -5.609375 C 4.160156 -5.609375 3.894531 -5.53125 3.6875 -5.375 C 3.488281 -5.21875 3.300781 -4.953125 3.125 -4.578125 C 2.957031 -4.203125 2.757812 -3.671875 2.53125 -2.984375 C 2.300781 -2.328125 2.078125 -1.769531 1.859375 -1.3125 C 1.648438 -0.851562 1.398438 -0.503906 1.109375 -0.265625 C 0.816406 -0.0351562 0.4375 0.078125 -0.03125 0.078125 Z M -0.03125 0.078125 "/>
  <path id="glyph0-1" d="M -0.6875 0 L 3.96875 -8.5625 L 5.09375 -8.5625 L 6.15625 0 L 5.09375 0 L 4.78125 -2.65625 L 1.890625 -2.65625 L 0.484375 0 Z M 2.40625 -3.625 L 4.671875 -3.625 L 4.46875 -5.421875 C 4.4375 -5.722656 4.40625 -6.054688 4.375 -6.421875 C 4.351562 -6.796875 4.335938 -7.125 4.328125 -7.40625 L 4.296875 -7.40625 C 4.171875 -7.101562 4.019531 -6.773438 3.84375 -6.421875 C 3.675781 -6.078125 3.503906 -5.726562 3.328125 -5.375 Z M 2.40625 -3.625 "/>
  <path id="glyph0-0" d="M 1.125 0 L 1.125 -8.5625 L 6.0625 -8.5625 L 6.0625 0 Z M 1.734375 -0.609375 L 5.453125 -0.609375 L 5.453125 -7.953125 L 1.734375 -7.953125 Z M 1.734375 -0.609375 "/>
 </defs>
 <image width="497" xlink:href="svg/9/22_18.jpg" height="279"/>
 <g>
  <path d="M 381.757812 125.007812 L 386.414062 116.445312 L 387.539062 116.445312 L 388.601562 125.007812 L 387.539062 125.007812 L 387.226562 122.351562 L 384.335938 122.351562 L 382.929688 125.007812 Z M 384.851562 121.382812 L 387.117188 121.382812 L 386.914062 119.585938 C 386.882812 119.285156 386.851562 118.953125 386.820312 118.585938 C 386.796875 118.210938 386.78125 117.882812 386.773438 117.601562 L 386.742188 117.601562 C 386.617188 117.90625 386.464844 118.234375 386.289062 118.585938 C 386.121094 118.929688 385.949219 119.28125 385.773438 119.632812 Z M 384.851562 121.382812 " transform=" rotate(  340 402.599 122.009) " style="fill:none;stroke-width:2;stroke-linecap:butt;stroke-linejoin:round;stroke:rgb(100%,100%,100%);stroke-opacity:0.6;stroke-miterlimit:10;"/>
  <path d="M 389.15625 125.085938 C 389.054688 125.085938 388.960938 125.074219 388.875 125.054688 C 388.78125 125.042969 388.710938 125.027344 388.65625 125.007812 L 388.65625 124.101562 C 388.773438 124.144531 388.90625 124.164062 389.0625 124.164062 C 389.3125 124.164062 389.523438 124.082031 389.703125 123.914062 C 389.890625 123.75 390.066406 123.484375 390.234375 123.117188 C 390.410156 122.742188 390.597656 122.257812 390.796875 121.664062 C 390.984375 121.125 391.160156 120.660156 391.328125 120.273438 C 391.492188 119.878906 391.679688 119.550781 391.890625 119.289062 C 392.109375 119.03125 392.367188 118.835938 392.671875 118.710938 C 392.984375 118.585938 393.375 118.523438 393.84375 118.523438 C 394.113281 118.523438 394.375 118.539062 394.625 118.570312 C 394.882812 118.601562 395.117188 118.65625 395.328125 118.726562 L 393.984375 125.007812 L 392.921875 125.007812 L 394.125 119.445312 C 394.070312 119.4375 394.003906 119.425781 393.921875 119.414062 C 393.847656 119.40625 393.765625 119.398438 393.671875 119.398438 C 393.347656 119.398438 393.082031 119.476562 392.875 119.632812 C 392.675781 119.789062 392.488281 120.054688 392.3125 120.429688 C 392.144531 120.804688 391.945312 121.335938 391.71875 122.023438 C 391.488281 122.679688 391.265625 123.238281 391.046875 123.695312 C 390.835938 124.15625 390.585938 124.503906 390.296875 124.742188 C 390.003906 124.972656 389.625 125.085938 389.15625 125.085938 Z M 389.15625 125.085938 " transform=" rotate(  340 402.599 122.009) " style="fill:none;stroke-width:2;stroke-linecap:butt;stroke-linejoin:round;stroke:rgb(100%,100%,100%);stroke-opacity:0.6;stroke-miterlimit:10;"/>
  <path d="M 395.683594 125.085938 C 395.582031 125.085938 395.488281 125.074219 395.402344 125.054688 C 395.308594 125.042969 395.238281 125.027344 395.183594 125.007812 L 395.183594 124.101562 C 395.300781 124.144531 395.433594 124.164062 395.589844 124.164062 C 395.839844 124.164062 396.050781 124.082031 396.230469 123.914062 C 396.417969 123.75 396.59375 123.484375 396.761719 123.117188 C 396.9375 122.742188 397.125 122.257812 397.324219 121.664062 C 397.511719 121.125 397.6875 120.660156 397.855469 120.273438 C 398.019531 119.878906 398.207031 119.550781 398.417969 119.289062 C 398.636719 119.03125 398.894531 118.835938 399.199219 118.710938 C 399.511719 118.585938 399.902344 118.523438 400.371094 118.523438 C 400.640625 118.523438 400.902344 118.539062 401.152344 118.570312 C 401.410156 118.601562 401.644531 118.65625 401.855469 118.726562 L 400.511719 125.007812 L 399.449219 125.007812 L 400.652344 119.445312 C 400.597656 119.4375 400.53125 119.425781 400.449219 119.414062 C 400.375 119.40625 400.292969 119.398438 400.199219 119.398438 C 399.875 119.398438 399.609375 119.476562 399.402344 119.632812 C 399.203125 119.789062 399.015625 120.054688 398.839844 120.429688 C 398.671875 120.804688 398.472656 121.335938 398.246094 122.023438 C 398.015625 122.679688 397.792969 123.238281 397.574219 123.695312 C 397.363281 124.15625 397.113281 124.503906 396.824219 124.742188 C 396.53125 124.972656 396.152344 125.085938 395.683594 125.085938 Z M 395.683594 125.085938 " transform=" rotate(  340 402.599 122.009) " style="fill:none;stroke-width:2;stroke-linecap:butt;stroke-linejoin:round;stroke:rgb(100%,100%,100%);stroke-opacity:0.6;stroke-miterlimit:10;"/>
  <path d="M 404.558594 125.132812 C 404.046875 125.132812 403.628906 124.945312 403.308594 124.570312 C 402.984375 124.195312 402.824219 123.648438 402.824219 122.929688 C 402.824219 122.335938 402.902344 121.769531 403.058594 121.226562 C 403.214844 120.6875 403.433594 120.210938 403.714844 119.804688 C 403.996094 119.390625 404.324219 119.0625 404.699219 118.820312 C 405.082031 118.582031 405.511719 118.460938 405.980469 118.460938 C 406.40625 118.460938 406.75 118.578125 407.011719 118.804688 C 407.269531 119.023438 407.46875 119.28125 407.605469 119.570312 L 407.652344 119.570312 L 408.042969 118.570312 L 408.839844 118.570312 L 407.480469 125.007812 L 406.636719 125.007812 L 406.792969 123.820312 L 406.746094 123.820312 C 406.472656 124.175781 406.152344 124.484375 405.777344 124.742188 C 405.410156 125.003906 405.003906 125.132812 404.558594 125.132812 Z M 404.902344 124.257812 C 405.203125 124.257812 405.496094 124.148438 405.777344 123.929688 C 406.058594 123.710938 406.3125 123.421875 406.542969 123.054688 C 406.769531 122.679688 406.953125 122.269531 407.089844 121.820312 C 407.152344 121.582031 407.1875 121.367188 407.199219 121.179688 C 407.21875 120.984375 407.230469 120.800781 407.230469 120.632812 C 407.230469 120.257812 407.125 119.953125 406.917969 119.710938 C 406.71875 119.472656 406.441406 119.351562 406.089844 119.351562 C 405.777344 119.351562 405.484375 119.453125 405.214844 119.648438 C 404.953125 119.835938 404.722656 120.101562 404.527344 120.445312 C 404.328125 120.78125 404.171875 121.164062 404.058594 121.601562 C 403.953125 122.03125 403.902344 122.484375 403.902344 122.960938 C 403.902344 123.390625 403.988281 123.710938 404.167969 123.929688 C 404.34375 124.148438 404.589844 124.257812 404.902344 124.257812 Z M 404.902344 124.257812 " transform=" rotate(  340 402.599 122.009) " style="fill:none;stroke-width:2;stroke-linecap:butt;stroke-linejoin:round;stroke:rgb(100%,100%,100%);stroke-opacity:0.6;stroke-miterlimit:10;"/>
  <path d="M 409.34375 125.007812 L 410.734375 118.539062 L 411.671875 118.539062 L 411.53125 119.726562 L 411.546875 119.726562 C 411.703125 119.53125 411.878906 119.332031 412.078125 119.132812 C 412.285156 118.925781 412.523438 118.753906 412.796875 118.617188 C 413.066406 118.484375 413.375 118.414062 413.71875 118.414062 C 414.238281 118.414062 414.644531 118.5625 414.9375 118.851562 C 415.226562 119.132812 415.375 119.53125 415.375 120.039062 C 415.375 120.226562 415.359375 120.421875 415.328125 120.617188 C 415.304688 120.804688 415.28125 120.96875 415.25 121.101562 L 414.390625 125.007812 L 413.265625 125.007812 L 414.125 120.960938 C 414.164062 120.785156 414.195312 120.632812 414.21875 120.507812 C 414.238281 120.382812 414.25 120.265625 414.25 120.148438 C 414.25 119.640625 413.976562 119.382812 413.4375 119.382812 C 413.164062 119.382812 412.875 119.476562 412.5625 119.664062 C 412.257812 119.84375 411.972656 120.140625 411.703125 120.554688 C 411.441406 120.972656 411.234375 121.535156 411.078125 122.242188 L 410.484375 125.007812 Z M 409.34375 125.007812 " transform=" rotate(  340 402.599 122.009) " style="fill:none;stroke-width:2;stroke-linecap:butt;stroke-linejoin:round;stroke:rgb(100%,100%,100%);stroke-opacity:0.6;stroke-miterlimit:10;"/>
  <path d="M 418.835938 125.132812 C 418.199219 125.132812 417.695312 124.984375 417.320312 124.679688 C 416.945312 124.378906 416.757812 123.910156 416.757812 123.273438 C 416.757812 123.117188 416.765625 122.9375 416.789062 122.726562 C 416.820312 122.519531 416.851562 122.328125 416.882812 122.148438 L 417.632812 118.570312 L 418.710938 118.570312 L 418.101562 121.367188 C 418.296875 121.328125 418.507812 121.296875 418.726562 121.273438 C 418.945312 121.242188 419.167969 121.226562 419.398438 121.226562 C 420.042969 121.226562 420.527344 121.375 420.851562 121.664062 C 421.183594 121.957031 421.351562 122.375 421.351562 122.914062 C 421.351562 123.320312 421.257812 123.691406 421.070312 124.023438 C 420.890625 124.359375 420.621094 124.628906 420.257812 124.835938 C 419.890625 125.03125 419.417969 125.132812 418.835938 125.132812 Z M 421.976562 125.007812 L 423.335938 118.570312 L 424.398438 118.570312 L 423.023438 125.007812 Z M 418.898438 124.257812 C 419.398438 124.257812 419.757812 124.132812 419.976562 123.882812 C 420.195312 123.632812 420.304688 123.347656 420.304688 123.023438 C 420.304688 122.671875 420.199219 122.425781 419.992188 122.289062 C 419.792969 122.15625 419.492188 122.085938 419.085938 122.085938 C 418.886719 122.085938 418.6875 122.097656 418.492188 122.117188 C 418.304688 122.140625 418.117188 122.171875 417.929688 122.210938 C 417.875 122.441406 417.839844 122.632812 417.820312 122.789062 C 417.796875 122.9375 417.789062 123.066406 417.789062 123.179688 C 417.789062 123.523438 417.871094 123.789062 418.039062 123.976562 C 418.214844 124.164062 418.5 124.257812 418.898438 124.257812 Z M 418.898438 124.257812 " transform=" rotate(  340 402.599 122.009) " style="fill:none;stroke-width:2;stroke-linecap:butt;stroke-linejoin:round;stroke:rgb(100%,100%,100%);stroke-opacity:0.6;stroke-miterlimit:10;"/>
  <g transform=" rotate(  340 402.599 122.009) " style="fill:rgb(0%,50.196078%,0%);fill-opacity:1;">
   <use xlink:href="#glyph0-1" y="125.00937" x="382.444701"/>
   <use xlink:href="#glyph0-2" y="125.00937" x="389.188701"/>
   <use xlink:href="#glyph0-2" y="125.00937" x="395.716701"/>
   <use xlink:href="#glyph0-3" y="125.00937" x="402.244701"/>
   <use xlink:href="#glyph0-4" y="125.00937" x="409.060701"/>
   <use xlink:href="#glyph0-5" y="125.00937" x="416.008701"/>
  </g>
 </g>
</svg>

<svg xmlns="http://www.w3.org/2000/svg" xmlns:xlink="http://www.w3.org/1999/xlink" viewBox="0 0 497 279"> <defs overflow="visible" style="stroke:none">  <path id="e" d="M2.8.1C2.2.1 1.7 0 1.3-.3 1-.6.7-1.1.7-1.7a5 5 0 0 1 .1-.6l.2-.6.6-3.5h1.1l-.6 2.8.6-.1h.7c.6-.1 1.1-.1 1.4.3.4.3.5.8.5 1.3 0 .4 0 .8-.2 1.1a2 2 0 0 1-.8.8c-.4.2-.9.3-1.5.3ZM6 0l1.3-6.4h1L7 0ZM2.9-.8c.5 0 .9 0 1-.2.4-.4.5-.7.5-1-.1-.3-.2-.6-.4-.7C3.8-3 3.5-3 3-3a6 6 0 0 0-.4 0 7 7 0 0 0-.7.2v.6l-.2.4c.1.3.1.6.3.8.2.2.5.3 1 .3Zm0 0"/>  <path id="d" d="m.3 0 1.4-6.5h1l-.3 1.2.6-.6.7-.5a2 2 0 0 1 1-.2c.5 0 .9.2 1.2.4.3.3.4.7.4 1.2v.6l-.1.5L5.3 0H4.2l.9-4v-1c.1-.4-.1-.6-.6-.6s-.7 0-1 .3c-.3.1-.6.3-.9.8L2-2.8 1.4 0Zm0 0"/>  <path id="c" d="M2.3.1c-.5 0-1-.1-1.2-.5-.4-.4-.5-1-.5-1.7 0-.6 0-1.1.2-1.7l.7-1.4 1-1c.3-.2.8-.3 1.2-.3.5 0 .8 0 1 .3l.8.8.3-1h.8L5.2 0h-.8l.1-1.2-1 1a2 2 0 0 1-1.2.2Zm.4-.8c.3-.1.5-.3.8-.4.3-.2.6-.5.8-.9l.5-1.2.2-.6v-.6c0-.3-.1-.6-.3-.9-.2-.2-.5-.4-.9-.4-.3 0-.6.1-.8.3l-.7.8-.5 1.2L1.7-2c0 .4 0 .7.2 1 .2 0 .4.2.8.2Zm0-.1"/>  <path id="b" d="M0 0h-.5v-1l.4.3.6-.4c.2-.2.5-.4.5-.8a14 14 0 0 0 .6-1.4l.5-1.4a4 4 0 0 1 .6-1 2 2 0 0 1 .8-.6l1.2-.2h.7l.7.3L4.8 0h-1l1-5.6h-.3c-.3 0-.6 0-.8.2l-.7.8L2.5-3A17 17 0 0 1 2-1.3c-.4.3-.6.8-1 1-.2.3-.6.4-1 .4Zm0 0"/>  <path id="a" d="M-.7 0 4-8.6h1L6.3 0H5l-.2-2.7h-3L.6 0Zm3.1-3.6h2.3l-.2-1.8a54.1 54.1 0 0 1-.2-2l-.5 1-.5 1Zm0 0"/>  <path d="M1.1 0v-8.6h5V0Zm.6-.6h3.8V-8H1.7Zm0 0"/> </defs> <image xlink:href="svg/9/22_18.jpg" width="497" height="279"/> <path d="m381.8 125 4.6-8.6h1.1l1.1 8.6h-1l-.5-2.6h-2.8L383 125Zm3-3.6h2.4l-.2-1.8a54.1 54.1 0 0 1-.2-2l-.6 1-.4 1ZM389.2 125h-.5v-.9h.3c.3.1.5.1.7-.1.2-.3.4-.5.5-.9a14 14 0 0 0 .6-1.4l.5-1.4a4 4 0 0 1 .7-1 2 2 0 0 1 .7-.6l1.1-.2h.8l.7.3-1.3 6.2h-1l1-5.6h-.3c-.4 0-.7 0-.8.2l-.6.8-.6 1.6a17 17 0 0 1-.7 1.7c-.2.5-.4.8-.7 1-.3.3-.7.4-1.1.4Zm6.5 0h-.5v-.9h.4c.2.1.4.1.6-.1l.6-.9a14 14 0 0 0 .5-1.4l.7-1.4a4 4 0 0 1 .4-1 2 2 0 0 1 .8-.6l1.2-.2h.8l.7.3-1.4 6.2h-1l1.1-5.6h-.4c-.3 0-.6 0-.8.2l-.6.8-.6 1.6a17 17 0 0 1-.6 1.7c-.2.5-.6.8-.8 1-.3.3-.6.4-1.1.4Zm8.9.1c-.6 0-1-.1-1.3-.5-.3-.4-.5-1-.5-1.7 0-.6.2-1.1.3-1.7.1-.5.3-1 .6-1.4l1-1c.4-.2.8-.3 1.3-.3.4 0 .8 0 1 .3.3.2.5.5.6.8l.4-1h.8l-1.3 6.4h-.9l.2-1.2-1.1 1a2 2 0 0 1-1.1.2Zm.3-.8c.3 0 .6-.3.9-.4l.7-.8c.3-.4.5-.8.6-1.3l.1-.6v-.6c0-.3 0-.6-.2-.9-.3-.2-.6-.3-.9-.3-.3 0-.6 0-.9.2l-.7.8-.4 1.2-.2 1.4c0 .4 0 .7.3 1 .1 0 .4.2.7.2Zm4.4.7 1.4-6.5h1l-.2 1.2.6-.6.7-.5a2 2 0 0 1 1-.2c.3 0 .7.2 1 .6.4 0 .6.5.6 1v.6l-.2.5-.9 4h-.9l.6-4.1.2-.5v-.4c.1-.5-.2-.7-.8-.7-.2 0-.4 0-.8.3-.3.1-.6.3-.9.9-.3.4-.5 1-.6 1.6l-.6 2.8Zm9.5.1c-.6 0-1.1-.1-1.5-.4-.3-.3-.5-.8-.5-1.4a5 5 0 0 1 0-.6v-.6l.9-3.5h1l-.6 2.8.6-.1h.7c.6-.1 1.1-.1 1.5.3.3.4.5.8.5 1.3 0 .4-.1.8-.4 1.1a2 2 0 0 1-.7.8c-.4.2-.9.3-1.5.3Zm3.2 0 1.3-6.6h1.1L423 125Zm-3.1-.9c.5.1.9-.2 1-.3.4-.3.5-.6.5-.9-.1-.3-.2-.6-.4-.7l-1-.3a6 6 0 0 0-.4 0 7 7 0 0 0-.7.2v.6l-.2.4c.1.3.1.6.3.8.2.2.5.3 1 .3Zm0 .1" style="fill:none;stroke-width:2;stroke-linecap:butt;stroke-linejoin:round;stroke:#fff;stroke-opacity:.6;stroke-miterlimit:10" transform=" rotate(  340 402.599 122.009) "/> <g style="fill:green;fill-opacity:1" transform=" rotate(  340 402.599 122.009) ">  <use xlink:href="#a" x="382.4" y="125"/>  <use xlink:href="#b" x="389.2" y="125"/>  <use xlink:href="#b" x="395.7" y="125"/>  <use xlink:href="#c" x="402.2" y="125"/>  <use xlink:href="#d" x="409.1" y="125"/>  <use xlink:href="#e" x="416" y="125"/> </g></svg>
